client/public/assets/icons/standard/process.svg

<?xml version="1.0"?><svg xmlns="http://www.w3.org/2000/svg" width="100" height="100" viewBox="0 0 100 100"><g fill="#fff"><path d="m37.6 46.3l10.8-13.4c0.8-1 2.3-1 3.1 0l10.8 13.4c0.4 0.5 1 0.7 1.6 0.7h12.1c1.1 0 2-0.9 2-2v-17c0-3.3-2.7-6-6-6h-44c-3.3 0-6 2.7-6 6v17c0 1.1 0.9 2 2 2h12c0.6 0 1.2-0.3 1.6-0.7z m24.7 7.4l-10.8 13.4c-0.8 1-2.3 1-3.1 0l-10.8-13.4c-0.4-0.5-1-0.7-1.6-0.7h-12c-1.1 0-2 0.9-2 2v17c0 3.3 2.7 6 6 6h44c3.3 0 6-2.7 6-6v-17c0-1.1-0.9-2-2-2h-12.1c-0.6 0-1.2 0.3-1.6 0.7z"></path></g></svg>

<?xml version="1.0" encoding="utf-8"?>
<!-- Generator: Adobe Illustrator 17.1.0, SVG Export Plug-In . SVG Version: 6.00 Build 0)  -->
<!DOCTYPE svg PUBLIC "-//W3C//DTD SVG 1.1//EN" "http://www.w3.org/Graphics/SVG/1.1/DTD/svg11.dtd">
<svg version="1.1" id="Layer_1" xmlns="http://www.w3.org/2000/svg" xmlns:xlink="http://www.w3.org/1999/xlink" x="0px" y="0px" width="100" height="100"
	 viewBox="0 0 100 100" enable-background="new 0 0 100 100" xml:space="preserve">
<g>
	<path fill="#FFFFFF" d="M37.6,46.3l10.8-13.4c0.8-1,2.3-1,3.1,0l10.8,13.4c0.4,0.5,1,0.7,1.6,0.7H76c1.1,0,2-0.9,2-2V28
		c0-3.3-2.7-6-6-6H28c-3.3,0-6,2.7-6,6v17c0,1.1,0.9,2,2,2h12C36.6,47,37.2,46.7,37.6,46.3z"/>
	<path fill="#FFFFFF" d="M62.3,53.7L51.5,67.1c-0.8,1-2.3,1-3.1,0L37.6,53.7c-0.4-0.5-1-0.7-1.6-0.7H24c-1.1,0-2,0.9-2,2v17
		c0,3.3,2.7,6,6,6h44c3.3,0,6-2.7,6-6V55c0-1.1-0.9-2-2-2H63.9C63.3,53,62.7,53.3,62.3,53.7z"/>
</g>
</svg>
